images/hand.svg

<svg width="153" height="160" viewBox="0 0 153 160" fill="none" xmlns="http://www.w3.org/2000/svg">
<path d="M148.146 77.8946C142.57 73.2944 134.333 73.5047 128.994 78.3704L110.937 94.8227C108.411 91.3678 104.347 89.1584 99.7594 89.1584H80.61C78.2023 89.1584 75.8711 88.7473 73.6811 87.9342C68.2702 85.9257 57.5813 83.2192 46.8208 87.6639C44.7682 88.5103 42.7226 89.7799 40.7392 91.4345L22.0337 107.06C19.1089 105.352 15.297 105.728 12.7959 108.229L4.23858 116.786C1.25503 119.767 1.25258 124.6 4.23858 127.584L32.8073 156.154C35.7832 159.132 40.6259 159.131 43.6049 156.154L52.1622 147.594C55.1378 144.62 55.1378 139.776 52.1622 136.796L51.8894 136.524L53.953 134.461C57.8409 130.575 63.0687 128.516 68.3372 128.885C80.9856 129.705 93.7966 128.696 106.418 125.875C110.83 124.889 114.859 122.671 118.07 119.46L148.674 88.8526C151.762 85.7649 151.522 80.6737 148.146 77.8946ZM48.7001 144.132L40.1429 152.692C39.0754 153.761 37.3393 153.758 36.2694 152.692L7.70062 124.122C6.63069 123.05 6.62947 121.322 7.70062 120.248L16.2579 111.691C17.3306 110.621 19.0657 110.626 20.1314 111.691C21.1248 112.685 48.9463 140.506 48.6989 140.259C49.7664 141.328 49.7676 143.066 48.7001 144.132ZM145.212 85.3906L114.608 115.998C112.054 118.551 108.853 120.313 105.352 121.097C93.1819 123.811 80.8277 124.796 68.6565 123.998C62.0061 123.558 55.3747 126.109 50.491 130.999L48.4274 133.062C17.4341 101.849 28.1235 112.614 25.811 110.285L43.8774 95.1935C45.4781 93.8594 47.0969 92.8479 48.6903 92.1879C57.9027 88.3839 67.2348 90.7677 71.9774 92.5249C74.7152 93.541 77.6188 94.0553 80.61 94.0553H99.7594C104.788 94.0553 108.734 98.1421 108.694 103.036C108.685 104.523 107.444 105.733 105.928 105.733H62.8869C61.5347 105.733 60.4384 106.828 60.4384 108.181C60.4384 109.535 61.5347 110.63 62.8869 110.63H105.928C110.124 110.63 113.563 107.237 113.591 103.072C113.601 101.833 113.448 100.616 113.137 99.4447L132.294 81.9907C135.844 78.7509 141.324 78.6171 145.033 81.6726C146.18 82.6167 146.264 84.339 145.212 85.3906Z" fill="white" fill-opacity="0.3"/>
<path d="M52.9445 136.529C55.9584 139.817 55.8751 144.943 52.6924 148.125L44.1353 156.684L44.135 156.684C40.8636 159.954 35.5461 159.956 32.277 156.684L52.9445 136.529ZM52.9445 136.529L54.4832 134.991C58.2283 131.248 63.2476 129.281 68.2849 129.633L68.2887 129.633C81.0094 130.458 93.8918 129.443 106.582 126.607C111.133 125.59 115.289 123.301 118.6 119.99L118.07 119.46L118.6 119.99L149.205 89.3829C152.605 85.9829 152.341 80.3772 148.623 77.3161C142.759 72.478 134.104 72.6994 128.489 77.816C128.489 77.816 128.489 77.816 128.489 77.816L111.032 93.7218C108.35 90.46 104.297 88.4084 99.7594 88.4084H80.61C78.2884 88.4084 76.0458 88.0121 73.9421 87.2311L73.6811 87.9342L73.9421 87.2311C68.464 85.1976 57.5543 82.419 46.5349 86.9705C44.4011 87.8504 42.2911 89.1632 40.2588 90.8586L40.2584 90.8589L21.9433 106.159C18.8056 104.584 14.8849 105.079 12.2656 107.698L12.2655 107.699L3.7085 116.256C3.70842 116.256 3.70833 116.256 3.70825 116.256C0.431942 119.529 0.429226 124.838 3.70824 128.114C3.70832 128.114 3.70839 128.114 3.70847 128.115L32.2768 156.684L52.9445 136.529ZM39.6122 152.162L39.6125 152.162L48.1697 143.602L48.1701 143.602C48.9435 142.829 48.9441 141.566 48.1682 140.789L48.1598 140.78L48.1112 140.732L47.8994 140.52L47.0528 139.673L43.949 136.569L34.3501 126.971L19.6011 112.222C19.6011 112.222 19.6011 112.222 19.601 112.222C18.8278 111.449 17.5674 111.445 16.788 112.222C16.7879 112.222 16.7877 112.222 16.7876 112.222L8.23155 120.778C8.23138 120.778 8.2312 120.779 8.23102 120.779C8.23099 120.779 8.23097 120.779 8.23095 120.779C7.45283 121.559 7.4537 122.812 8.23118 123.592C8.23131 123.592 8.23143 123.592 8.23156 123.592L36.7988 152.161L39.6122 152.162ZM39.6122 152.162C38.8391 152.936 37.5782 152.936 36.7997 152.162L39.6122 152.162ZM48.4293 131.999L49.9604 130.469C54.9908 125.432 61.8312 122.795 68.7056 123.249C80.8035 124.043 93.0862 123.064 105.189 120.365C108.55 119.612 111.624 117.92 114.077 115.467L144.682 84.8602C145.42 84.1218 145.361 82.9143 144.556 82.2517L144.556 82.2514C141.135 79.4329 136.073 79.5569 132.799 82.5447L132.799 82.545L113.973 99.6981C114.226 100.797 114.35 101.929 114.341 103.077C114.341 103.077 114.341 103.077 114.341 103.078L113.591 103.072C113.563 107.237 110.124 110.63 105.928 110.63H62.8869C61.5347 110.63 60.4384 109.535 60.4384 108.181C60.4384 106.828 61.5347 105.733 62.8869 105.733H105.928L48.4293 131.999ZM48.4293 131.999L26.9193 110.337L44.3575 95.7696C45.912 94.4741 47.4668 93.5065 48.9774 92.8808C57.9272 89.1856 67.0355 91.4938 71.7165 93.2281L48.4293 131.999ZM48.1702 140.787C48.1712 140.421 48.2988 140.181 48.4652 140.025L48.6987 140.259L48.1702 140.787ZM48.7001 144.132L40.1429 152.692L48.7001 144.132Z" stroke="white" stroke-opacity="0.3" stroke-width="1.5"/>
<path d="M86.2541 79.596C104.983 79.596 120.223 64.3608 120.228 45.632C120.228 44.2838 119.133 43.1835 117.779 43.1835H88.712V14.1189C88.712 12.7658 87.6078 11.668 86.2541 11.668C67.5326 11.668 52.3008 26.901 52.3008 45.6225C52.3008 64.3559 67.5326 79.596 86.2541 79.596ZM83.8151 16.6653V45.632C83.8151 46.9854 84.9102 48.0804 86.2636 48.0804H115.228C113.975 62.9667 101.458 74.6994 86.2538 74.6994C70.2318 74.6994 57.1973 61.6567 57.1973 45.6225C57.1977 30.4206 68.9301 17.9088 83.8151 16.6653Z" fill="white" fill-opacity="0.3"/>
<path d="M120.978 45.6322V45.632C120.978 43.8707 119.549 42.4335 117.779 42.4335H89.462V14.1189C89.462 12.3489 88.0193 10.918 86.2541 10.918C67.1184 10.918 51.5508 26.4869 51.5508 45.6225C51.5508 64.7697 67.118 80.346 86.2541 80.346C105.397 80.346 120.973 64.7751 120.978 45.6322ZM83.0651 17.4923V45.632C83.0651 47.3996 84.496 48.8304 86.2636 48.8304H114.4C112.801 62.9438 100.787 73.9494 86.2538 73.9494C70.6465 73.9494 57.9473 61.243 57.9473 45.6225C57.9476 31.0919 68.953 19.0821 83.0651 17.4923Z" stroke="white" stroke-opacity="0.3" stroke-width="1.5"/>
<path d="M96.2375 38.1053H127.751C129.104 38.1053 130.199 37.0008 130.199 35.6474C130.199 16.9308 114.964 1.70021 96.2375 1.69531C94.8862 1.69531 93.7891 2.79249 93.7891 4.14375V35.6569C93.7891 37.01 94.8841 38.1053 96.2375 38.1053ZM98.6859 6.69474C112.766 7.87824 124.026 19.135 125.202 33.2084H98.6859V6.69474Z" fill="white" fill-opacity="0.3"/>
<path d="M96.2377 0.945312H96.2375C94.472 0.945312 93.0391 2.37827 93.0391 4.14375V35.6569C93.0391 37.4241 94.4698 38.8553 96.2375 38.8553H127.751C129.522 38.8553 130.949 37.4112 130.949 35.6474C130.949 16.5163 115.378 0.950319 96.2377 0.945312ZM99.4359 32.4584V7.52223C112.501 9.00057 122.903 19.401 124.375 32.4584H99.4359Z" stroke="white" stroke-opacity="0.3" stroke-width="1.5"/>
</svg>

<svg xmlns="http://www.w3.org/2000/svg" width="153" height="160" fill="none"><path fill="#fff" fill-opacity=".3" d="M148.146 77.895c-5.576-4.6-13.813-4.39-19.152.475l-18.057 16.453a13.79 13.79 0 0 0-11.178-5.665H80.61c-2.408 0-4.739-.41-6.929-1.224-5.41-2.008-16.1-4.715-26.86-.27-2.053.846-4.098 2.116-6.082 3.77L22.034 107.06c-2.925-1.708-6.737-1.332-9.238 1.169l-8.557 8.557a7.63 7.63 0 0 0 0 10.798l28.568 28.57c2.976 2.978 7.819 2.977 10.798 0l8.557-8.56c2.976-2.974 2.976-7.818 0-10.798l-.273-.272 2.064-2.063c3.888-3.886 9.116-5.945 14.384-5.576 12.649.82 25.46-.189 38.081-3.01a23.8 23.8 0 0 0 11.652-6.415l30.604-30.607c3.088-3.088 2.848-8.18-.528-10.958M48.7 144.132l-8.557 8.56a2.743 2.743 0 0 1-3.874 0l-28.568-28.57a2.74 2.74 0 0 1 0-3.874l8.557-8.557a2.743 2.743 0 0 1 3.873 0L48.7 140.259a2.74 2.74 0 0 1 .001 3.873m96.512-58.741-30.604 30.607a18.93 18.93 0 0 1-9.256 5.099c-12.17 2.714-24.524 3.699-36.696 2.901-6.65-.44-13.281 2.111-18.165 7.001l-2.064 2.063-22.616-22.777 18.066-15.091c1.601-1.335 3.22-2.346 4.813-3.006 9.213-3.804 18.545-1.42 23.287.337a24.7 24.7 0 0 0 8.633 1.53h19.15a8.914 8.914 0 0 1 8.934 8.981c-.009 1.487-1.25 2.697-2.766 2.697H62.887a2.448 2.448 0 1 0 0 4.897h43.041c4.196 0 7.635-3.393 7.663-7.558a13.7 13.7 0 0 0-.454-3.627l19.157-17.454c3.55-3.24 9.03-3.374 12.739-.318a2.51 2.51 0 0 1 .179 3.718"/><path stroke="#fff" stroke-opacity=".3" stroke-width="1.5" d="M52.945 136.529c3.013 3.288 2.93 8.414-.253 11.596l-8.557 8.559c-3.271 3.27-8.589 3.272-11.858 0zm0 0 1.538-1.538c3.745-3.743 8.765-5.71 13.802-5.358h.004c12.72.825 25.603-.19 38.293-3.026a24.55 24.55 0 0 0 12.018-6.617l-.53-.53.53.53 30.605-30.607c3.4-3.4 3.136-9.006-.582-12.067-5.864-4.838-14.519-4.617-20.134.5l-17.457 15.906a14.53 14.53 0 0 0-11.273-5.314H80.61c-2.322 0-4.564-.396-6.668-1.177l-.26.703.26-.703c-5.478-2.033-16.388-4.812-27.407-.26-2.134.88-4.244 2.192-6.276 3.888l-18.316 15.3c-3.137-1.575-7.058-1.08-9.677 1.539v.001l-8.557 8.557a8.38 8.38 0 0 0 0 11.858v.001l28.568 28.569zm-13.333 15.633 8.558-8.56a1.993 1.993 0 0 0-.002-2.813l-.008-.009-.049-.048-.212-.212-.846-.847-3.104-3.104-9.599-9.598-14.749-14.749a1.99 1.99 0 0 0-2.813 0l-8.556 8.556-.001.001a1.987 1.987 0 0 0 0 2.813L36.8 152.161zm0 0a1.994 1.994 0 0 1-2.812 0zm8.817-20.163 1.531-1.53c5.03-5.037 11.871-7.674 18.746-7.22 12.097.794 24.38-.185 36.483-2.884a18.18 18.18 0 0 0 8.888-4.898l30.605-30.607a1.76 1.76 0 0 0-.126-2.608c-3.421-2.82-8.483-2.695-11.757.293l-18.826 17.153c.253 1.099.377 2.231.368 3.379v.001l-.75-.006c-.028 4.165-3.467 7.558-7.663 7.558H62.887a2.448 2.448 0 1 1 0-4.897h43.041zm0 0-21.51-21.662L44.358 95.77c1.554-1.296 3.109-2.263 4.62-2.89 8.95-3.694 18.057-1.386 22.738.348zm-.259 8.788c.001-.366.129-.606.295-.762l.234.234zm.53 3.345-8.557 8.56z"/><path fill="#fff" fill-opacity=".3" d="M86.254 79.596c18.729 0 33.969-15.235 33.974-33.964a2.45 2.45 0 0 0-2.449-2.448H88.712V14.119a2.457 2.457 0 0 0-2.458-2.451c-18.721 0-33.953 15.233-33.953 33.955 0 18.733 15.232 33.973 33.953 33.973m-2.439-62.93v28.966a2.447 2.447 0 0 0 2.449 2.448h28.964c-1.253 14.887-13.77 26.62-28.974 26.62-16.022 0-29.057-13.043-29.057-29.077 0-15.202 11.733-27.714 26.618-28.958"/><path stroke="#fff" stroke-opacity=".3" stroke-width="1.5" d="M120.978 45.632a3.2 3.2 0 0 0-3.199-3.198H89.462V14.119c0-1.77-1.443-3.201-3.208-3.201-19.136 0-34.703 15.569-34.703 34.705 0 19.147 15.567 34.723 34.703 34.723 19.143 0 34.719-15.57 34.724-34.714Zm-37.913-28.14v28.14a3.197 3.197 0 0 0 3.199 3.198H114.4c-1.599 14.114-13.613 25.12-28.146 25.12-15.608 0-28.307-12.707-28.307-28.327 0-14.531 11.006-26.54 25.118-28.13Z"/><path fill="#fff" fill-opacity=".3" d="M96.238 38.105h31.513a2.455 2.455 0 0 0 2.448-2.458c0-18.716-15.235-33.947-33.962-33.952a2.45 2.45 0 0 0-2.448 2.449v31.513a2.447 2.447 0 0 0 2.448 2.448m2.448-31.41c14.08 1.183 25.34 12.44 26.516 26.513H98.686z"/><path stroke="#fff" stroke-opacity=".3" stroke-width="1.5" d="M96.238.945a3.2 3.2 0 0 0-3.199 3.199v31.513a3.197 3.197 0 0 0 3.198 3.198h31.514a3.205 3.205 0 0 0 3.198-3.208c0-19.13-15.571-34.697-34.711-34.702Zm3.198 31.513V7.522c13.065 1.479 23.467 11.879 24.939 24.936z"/></svg>
